X:1
T:O Bread of LIfe, 77.67.78
T:O Bread of LIfe, 77.67.78
T:Heinrich Isaac, arr. F. Melius Christiansen
T:Public Domain Courtesy of the Cyber Hymnal™
C:Heinrich Isaac, arr. F. Melius Christiansen
Z:Public Domain
Z:Courtesy of the Cyber Hymnal™
%%score ( 1 2 ) ( 3 4 )
L:1/8
Q:1/4=110
M:4/4
K:F
V:1 treble 
V:2 treble 
V:3 bass 
V:4 bass 
V:1
 [FA]2 | F2 G2 [CA]2 [Cc]2 | B4 [FA]2 [FA]2 | [Ec]2 [Fc]2 [DG]2 [^CA]2 | [DF]4 [^CE]2 [CE]2 | %5
 [DF]2 [EG]2 [FA]2 [FA]2 | [EG]4 z2 [EA]2 | [DF]2 [EG]2 [FA]2 [Fc]2 | [FB]4 [FA]2 [FA]2 | %9
 [Gc]2 c2 [DG]2 [CA]2 | F4 [CE]2 C2 | [CF]2 [B,G]2 [A,A]2 [DB]2 | [CA]2 G2 !fermata![A,F]2 |] %13
V:2
 x2 | F2 (ED) x4 | (D2 E2) x4 | x8 | x8 | x8 | x8 | x8 | x8 | x2 (FE) x4 | (C2 =B,2) C2 x2 | x8 | %12
 x2 (B,G,) x2 |] %13
V:3
 [F,C]2 | [D,B,]2 [C,B,]2 [F,A,]2 [E,G,]2 | ([D,F,]2 [C,G,]2) [F,,A,]2 [F,,C]2 | %3
 [G,,B,]2 [A,,A,]2 [B,,G,]2 (E,A,) | ([A,,A,]2 [G,,B,]2) [A,,E,]2 [A,,A,]2 | %5
 [D,A,]2 C2 [A,,C]2 [=B,,D]2 | [C,G,]4 z2 [^C,E,]2 | [D,A,]2 [C,C]2 [F,,C]2 [A,,F,]2 | %8
 ([B,,D]2 [D,B,]2) [F,C]2 [F,C]2 | [E,G,]2 A,2 [B,,B,]2 [A,,F,]2 | D,2 G,2 [C,G,]2 [B,,E,]2 | %11
 [A,,F,]2 [C,E,]2 F,2 (G,D,) | [C,F,]2 [C,E,]2 !fermata![F,,C,]2 |] %13
V:4
 x2 | x8 | x8 | x6 A,,2 | x8 | x2 (C,=B,,) x4 | x8 | x8 | x8 | x2 (D,C,) x4 | G,,4 x4 | %11
 x4 F,2 B,,2 | x6 |] %13

